src/front_assets/svg/gmail.svg

<svg width="21" height="21" viewBox="0 0 21 21" fill="none" xmlns="http://www.w3.org/2000/svg">
<path d="M20.7932 8.53098C20.9271 9.2339 21 9.96881 21 10.7357C21 16.7345 16.903 21 10.715 21C9.30774 21.0004 7.91422 20.7291 6.61402 20.2016C5.31383 19.6741 4.13245 18.9007 3.13739 17.9256C2.14232 16.9505 1.35308 15.7928 0.814755 14.5187C0.27643 13.2446 -0.000428558 11.879 4.97926e-07 10.5C-0.000428558 9.121 0.27643 7.75543 0.814755 6.48133C1.35308 5.20722 2.14232 4.04954 3.13739 3.07444C4.13245 2.09934 5.31383 1.32593 6.61402 0.798409C7.91422 0.270884 9.30774 -0.00041996 10.715 4.87937e-07C13.6081 4.87937e-07 16.0257 1.04317 17.8804 2.737L14.8599 5.69692V5.68946C13.7355 4.63988 12.3085 4.10123 10.715 4.10123C7.1796 4.10123 4.30602 7.02809 4.30602 10.4936C4.30602 13.958 7.1796 16.8913 10.715 16.8913C13.9227 16.8913 16.1062 15.094 16.5547 12.6258H10.715V8.53098H20.7943H20.7932Z" fill="red"/>
</svg>

<svg xmlns="http://www.w3.org/2000/svg" width="21" height="21" fill="none"><path fill="red" d="M20.793 8.531c.134.703.207 1.438.207 2.205C21 16.735 16.903 21 10.715 21c-1.407 0-2.8-.27-4.101-.798-1.3-.528-2.482-1.301-3.477-2.276a10.5 10.5 0 0 1-2.322-3.407 10.31 10.31 0 0 1 0-8.038 10.5 10.5 0 0 1 2.322-3.407A10.7 10.7 0 0 1 6.614.798C7.914.271 9.308 0 10.715 0c2.893 0 5.31 1.043 7.165 2.737l-3.02 2.96v-.008c-1.124-1.05-2.551-1.588-4.145-1.588-3.535 0-6.409 2.927-6.409 6.393 0 3.464 2.874 6.397 6.409 6.397 3.208 0 5.391-1.797 5.84-4.265h-5.84V8.53h10.08z"/></svg>
